X:1
T:Title
%%score { ( 1 4 ) | ( 2 3 ) }
L:1/8
M:4/4
K:G
V:1 treble nm="Grand Piano"
V:4 treble 
V:2 treble 
V:3 treble 
V:1
 z4 z2[Q:1/4=100] D2 | G2 G2 A2 AA | B3 A G2 G2 | B2 BB [G^c]<[Gc] [Gc]2 | [Fd]4 [A,FA]2 .[DFA]2 | %5
 [EGc]2 [EGc][EGc] [DFB]<[DFB] [CFA]2 | G2- [DG]2 [DFG]2 [CEG]2 | [B,DG]4 [A,DF]3 [B,DG] | %8
 [B,DG]6 [B,D]2 | [CE]2 [CE]2 [B,D]2 [B,D][B,D] | [CE][CE] [CE]2 [B,G]2 G2 | G2 G2 G2 GG | %12
[M:9/8] GGG- G B2- B B2 |[M:4/4] A2 A2 G2 GG | [EG]2 [^DF]4 [DF]2 | [B,EG]2 [B,EG]2 [DFA]4 | %16
 [DGB]6 [DGB]2 | [DAc] [DAc]3 [DGB]4 | [GB]4 A2 [FA]2 | G2 z2 z4 | [B,G]2 [B,D]4 [DB]2 | G2 z2 z4 | %22
 [B,G]6 [B,D]2 | B,4 [B,G]2 [DA]2 | [GB]2 [Bd]4 [ce]2 | [Bd]2 [DGB]2 [FA]-[CF-A-] [CFA]2 | %26
[M:9/8] [B,G]6 z3 |[M:3/4] F4 =F2 | F4 =F2 | F4 [FA]2 | A4 z2 | G4 z2 | G4 z2 | z2 E2 B2 | B4 z2 | %35
 F4 f2 | [Af]2 e2 ^c2 | [^CA]2 ^c2 e2 | [Ge]2 d2 A2 | [Bd]2 ^c2 B2 | A2 d2 f2 | e2 z2 ^c2 | %42
 [Fd]4 z2 |[M:4/4] G2 G2 AAAA | B3 A G2 z2 | BBBB [G^c]2 [Gc]2 | d4 A2 .[DFA]2 | %47
 [EGc]3 [EGc] [DFB]2 [CFA]2 | z4 G4 | GGGG G2 F2 | [B,DG]6 [DG]2 | [Gc]4 [EGc]3 [EGc] | [DGB]6 G2 | %53
 [ce]4 [Ece]3 [Ece] | [DBd]6 [Bd]2 | [Bd]2 cB [Ac]2 [Bd]2 | [Ac]2 B4 [GB]2 | [FA]2 GF [EG]2 [FA]2 | %58
 [EG]2 F4 G2 | c4 c3 c | [DGB]6 G2 | [ce]4 [Ece]3 [Ece] | [DBd]6 [Gd]2 | [Gg]2 [Gg]2 f2 e2 | %64
 [DGd]2 [DG][DG] [Gd]2 [Gc]2[Q:1/4=99][Q:1/4=97][Q:1/4=96][Q:1/4=94][Q:1/4=93][Q:1/4=91][Q:1/4=90] | %65
 [GB]4 [FA]4[Q:1/4=88][Q:1/4=87][Q:1/4=85][Q:1/4=84][Q:1/4=82][Q:1/4=81][Q:1/4=79][Q:1/4=78][Q:1/4=76] | %66
[M:3/4] [B,G]2 [B,G]4 |] %67
V:2
 z4 z2 [G,B,]2 | [G,B,D]2 [G,B,]2 [G,CG]2 [G,CG][G,CG] | [G,DG]3 [G,CD] [G,B,D]2 [G,B,D]2 | %3
 [G,DG]2 [G,DG][G,DG][K:bass] [E,G,]<[E,G,] [E,G,]2 | [D,A,]4 D,2 z[K:treble] B | %5
 A,,2 A,,A,, D,<D, D,2 | E,2 B,,2 C,2 C,2 | D,4 D,3 G,, | G,,6 G,,2 | G,,2 G,,2 G,,2 G,,G,, | %10
 G,,G,, G,,2 G,,2 [G,B,D]2 | [G,CE]2 [G,CE]2 [G,B,D]2 [G,B,D][G,B,D] | %12
[M:9/8] [G,CE][G,CE][G,CE]- [G,CE] [G,D]2- [G,D] [G,B,D]2 | %13
[M:4/4] [F,B,D]2 [F,B,D]2 [E,B,E]2 [E,B,E][E,B,E] | [B,,B,]2 [B,,B,]4 [B,,B,]2 | E,2 E,2 D,4 | %16
 G,6 G,2 | F, F,3 G,4 | z4 F2 D,2 | z2 D2 G,,2 G,,2 | G,,2 G,,4 G,,2 | z2 D2 G,,2 G,,2 | G,,6 G,2 | %23
 z2[K:treble] G2 G,2 G,2 | G,2 G,4[K:bass] C,2 | D,2 D,2 D,D, D,2 |[M:9/8] G,,6 z3 | %27
[M:3/4] D,2 A,2 ^G,2 | D,2 A,2 ^G,2 | D,2 A,2 D2 | D,2 D2 [A,D]2 | A,,4 ^D2 | A,,4 ^D2 | %33
 A,,4[K:treble] G2 | D,4 F2 | z2 d2 A2 | z2 G2 E2 | z2 E2[K:treble] G2 | z2 F2 F2 | z2 A2 G2 | %40
 [A,F]4 A2 | z2[K:treble] B2 G2 | D,4 z2 | %43
[M:4/4][K:treble] [G,B,D]2 [G,B,]2 [G,CG][G,CG][G,CG][G,CG] | [DG]3 [CD] [B,D]2 z2 | %45
 [G,DG][G,DG][G,DG][G,DG][K:bass] [E,G,]2 [E,G,]2 | D,4- [D,D]2 z[K:treble] B | A,,3 A,, D,2 D,2 | %48
 E,2 D,2 z2 C2 | [D,B,D][D,B,D][D,B,D][D,B,D] [D,A,D]2 [D,CD]2 | G,,2 G,2 z2 B,2 | E4 G,3 G, | %52
 G,2 G,2 G,2 z2 | E4 G,3 G, | G,6 G,2 | z2[K:treble] AG[K:bass] D,2 D,2 | z2[K:treble] G4 G,2 | %57
 z2 ED[K:bass] A,2 A,2 | z2 D4 [G,B,D]2 | [G,EG]4 [G,EG]3 [G,EG] | G,2 G,2[K:bass] G,2 z2 | %61
 E4 G,3 G, | G,6 [G,B,]2 | [E,B,]2 [E,B,]2 [D,B,]2 [C,C]2 | B,,2 B,,B,, [E,B,]2 [E,C]2 | %65
 [D,D]4 [D,C]4 |[M:3/4] G,,2 G,,4 |] %67
V:3
 x8 | x8 | x8 | x4[K:bass] x4 | z4 z2 D,2[K:treble] | x8 | x8 | x8 | x8 | x8 | x8 | x8 | %12
[M:9/8] x9 |[M:4/4] x8 | x8 | x8 | x8 | x8 | D,6 z2 | G,,4 z4 | x8 | G,,4 z4 | x8 | %23
 G,4[K:treble] z4 | x6[K:bass] x2 | x8 |[M:9/8] x9 |[M:3/4] x6 | x6 | x6 | x6 | x6 | x6 | %33
 x4[K:treble] x2 | x6 | D,4 z2 | ^C,4 z2 | A,,4[K:treble] z2 | D,4 z2 | G,4 z2 | x6 | %41
 A,,4[K:treble] z2 | x6 |[M:4/4][K:treble] x8 | G,6 z2 | x4[K:bass] x4 | A,4 z2 D,2[K:treble] | %47
 x8 | z4 C,4 | x8 | z4 G,4- | G,4 z4 | z4 z2 G,2- | G,4 z4 | x8 | D,4[K:treble][K:bass] z4 | %56
 G,6[K:treble] z2 | A,4[K:bass] z4 | D,6 z2 | x8 | z4[K:bass] z2 G,2- | G,4 z4 | x8 | x8 | x8 | %65
 x8 |[M:3/4] x6 |] %67
V:4
 x8 | x8 | x8 | x8 | x8 | x8 | B,2 z2 z4 | x8 | x8 | x8 | x8 | x8 |[M:9/8] x9 |[M:4/4] x8 | x8 | %15
 x8 | x8 | x8 | D6 z2 | B4 [CA]2 [B,G]2 | x8 | B4 [CA]2 [B,G]2 | x8 | D2 z2 z4 | x8 | z4 .C2 z2 | %26
[M:9/8] x9 |[M:3/4] x6 | x6 | x6 | z2 F2 F2 | z2 E2 F2 | z2 E2 F2 | G4 z2 | z2 G2 A2 | A2 z2 z2 | %36
 x6 | x6 | x6 | x6 | x6 | G4 z2 | x6 |[M:4/4] x8 | x8 | x8 | F6 z2 | x8 | [B,G]2 [DG]2 [DF]2 E2 | %49
 x8 | x8 | x8 | x8 | x8 | x8 | x8 | x8 | x8 | x8 | x8 | x8 | x8 | x8 | z4 G4 | x8 | x8 | %66
[M:3/4] x6 |] %67

